assets/figma-icon.svg

<svg width="256" height="256" viewBox="0 0 256 256" fill="none" xmlns="http://www.w3.org/2000/svg">
<path d="M162 162C180.778 162 196 146.778 196 128C196 109.222 180.778 94 162 94C143.222 94 128 109.222 128 128C128 146.778 143.222 162 162 162Z" stroke="white" stroke-width="8" stroke-linecap="round" stroke-linejoin="round"/>
<path d="M128 94V26H94C84.9826 26 76.3346 29.5821 69.9584 35.9584C63.5821 42.3346 60 50.9826 60 60C60 69.0174 63.5821 77.6654 69.9584 84.0416C76.3346 90.4179 84.9826 94 94 94H128Z" stroke="white" stroke-width="8" stroke-linecap="round" stroke-linejoin="round"/>
<path d="M128 162V94H94C84.9826 94 76.3346 97.5821 69.9584 103.958C63.5821 110.335 60 118.983 60 128C60 137.017 63.5821 145.665 69.9584 152.042C76.3346 158.418 84.9826 162 94 162H128Z" stroke="white" stroke-width="8" stroke-linecap="round" stroke-linejoin="round"/>
<path d="M128 94V26H162C171.017 26 179.665 29.5821 186.042 35.9584C192.418 42.3346 196 50.9826 196 60C196 69.0174 192.418 77.6654 186.042 84.0416C179.665 90.4179 171.017 94 162 94H128Z" stroke="white" stroke-width="8" stroke-linecap="round" stroke-linejoin="round"/>
<path d="M128 162V196C128 202.725 126.006 209.298 122.27 214.889C118.534 220.481 113.224 224.839 107.011 227.412C100.799 229.985 93.9623 230.659 87.3669 229.347C80.7716 228.035 74.7134 224.797 69.9584 220.042C65.2034 215.287 61.9652 209.228 60.6533 202.633C59.3414 196.038 60.0147 189.201 62.5881 182.989C65.1615 176.776 69.5194 171.466 75.1106 167.73C80.7019 163.994 87.2755 162 94 162H128Z" stroke="white" stroke-width="8" stroke-linecap="round" stroke-linejoin="round"/>
</svg>

<svg xmlns="http://www.w3.org/2000/svg" width="256" height="256" fill="none" stroke="#fff" stroke-width="8" stroke-linejoin="round" xmlns:v="https://vecta.io/nano"><path d="M162 162c18.778 0 34-15.222 34-34s-15.222-34-34-34-34 15.222-34 34 15.222 34 34 34zm-34-68V26H94a34 34 0 1 0 0 68h34z"/><path d="M128 162V94H94a34 34 0 0 0-24.042 9.958C63.582 110.335 60 118.983 60 128s3.582 17.665 9.958 24.042A34 34 0 0 0 94 162h34z"/><path d="M128 94V26h34c9.017 0 17.665 3.582 24.042 9.958A34 34 0 0 1 162 94h-34zm0 68v34c0 6.725-1.994 13.298-5.73 18.889a34 34 0 0 1-52.312 5.153c-4.755-4.755-7.993-10.814-9.305-17.409A34 34 0 0 1 94 162h34z"/></svg>
